X: 8935
T: Curragh Races, The
R: reel
M: 4/4
K: Adorian
|:eAcA eAcA|~G2 GB dGBd|eAcA eAcA|dBGA cA A2|
eA (3BcA eA (3BcA|~G2 BG dGAB|c2 cA BG~G2|dBGA BA A2:|
|:c2 ec gcec|c2 eg dBGB|vc2 ec gcec|dBGA BA~A2|
c2 eA gAeA|cege dBGB|vc2 cA B.G.G.G|dBGA BA A2:|

